lib/flags/tj-tajikistan.svg

<svg xmlns="http://www.w3.org/2000/svg" fill="none" aria-hidden="true" viewBox="0 0 42 30"><g id="Country=TJ - Tajikistan, Size=sm (36x24)" filter="url(#filter0_dd_91_24756)"><g clip-path="url(#clip0_91_24756)"><g id="flag"><mask id="mask0_91_24756" width="36" height="24" x="3" y="2" maskUnits="userSpaceOnUse" style="mask-type:alpha"><rect id="mask" width="36" height="24" x="3" y="2" fill="white"/></mask><g mask="url(#mask0_91_24756)"><g id="contents"><path id="middle" fill="#F7FCFF" fill-rule="evenodd" d="M3 2H39V26H3V2Z" clip-rule="evenodd"/><path id="top" fill="#C51918" fill-rule="evenodd" d="M3 2V10H39V2H3Z" clip-rule="evenodd"/><path id="bottom" fill="#409100" fill-rule="evenodd" d="M3 18V26H39V18H3Z" clip-rule="evenodd"/><g id="mark"><path id="Combined Shape" fill="#FFBB00" fill-rule="evenodd" d="M21.0227 10.63L20.3576 11.0477L20.5923 10.3477L19.9466 9.90588L20.7567 9.89098L21.0227 9.2002L21.2887 9.89098L22.0988 9.90588L21.4532 10.3477L21.6878 11.0477L21.0227 10.63ZM18.2134 11.2428L17.5483 11.6605L17.7829 10.9605L17.1372 10.5187L17.9473 10.5038L18.2134 9.81299L18.4794 10.5038L19.2895 10.5187L18.6438 10.9605L18.8784 11.6605L18.2134 11.2428ZM15.3634 13.4988L16.0285 13.081L16.6935 13.4988L16.4589 12.7988L17.1046 12.3569L16.2945 12.342L16.0285 11.6512L15.7624 12.342L14.9523 12.3569L15.598 12.7988L15.3634 13.4988ZM15.3262 15.464L14.6611 15.8817L14.8957 15.1818L14.25 14.7399L15.0601 14.725L15.3262 14.0342L15.5922 14.725L16.4023 14.7399L15.7566 15.1818L15.9912 15.8817L15.3262 15.464ZM25.976 15.8817L26.6411 15.464L27.3062 15.8817L27.0716 15.1818L27.7172 14.7399L26.9071 14.725L26.6411 14.0342L26.3751 14.725L25.565 14.7399L26.2107 15.1818L25.976 15.8817ZM25.7828 13.081L25.1177 13.4988L25.3524 12.7988L24.7067 12.3569L25.5168 12.342L25.7828 11.6512L26.0488 12.342L26.8589 12.3569L26.2133 12.7988L26.4479 13.4988L25.7828 13.081ZM22.9655 11.6605L23.6306 11.2428L24.2957 11.6605L24.061 10.9605L24.7067 10.5187L23.8966 10.5038L23.6306 9.81299L23.3646 10.5038L22.5545 10.5187L23.2001 10.9605L22.9655 11.6605ZM17.2508 18.7548L17.0434 18.0984C18.191 17.8224 19.5084 17.6851 20.996 17.6851C22.4836 17.6851 23.8011 17.8224 24.9487 18.0984L24.7413 18.7548C23.6656 18.4961 22.4171 18.366 20.996 18.366C19.5749 18.366 18.3264 18.4961 17.2508 18.7548ZM18.6719 17.7022C18.2141 17.7713 17.8396 17.3779 17.8396 17.3779L18.2939 17.2111C18.2795 16.9312 18.4694 16.7576 18.4694 16.7576C18.6231 16.8205 18.8328 17.1642 18.8328 17.1642H19.2445C19.2445 17.1642 19.1298 17.633 18.6719 17.7022ZM24.0826 17.446C24.0826 17.446 23.7082 17.8394 23.2503 17.7703C22.7925 17.7012 22.6777 17.2323 22.6777 17.2323H23.0895C23.0895 17.2323 23.2992 16.8886 23.4528 16.8257C23.4528 16.8257 23.6428 16.9993 23.6284 17.2792L24.0826 17.446ZM20.9386 17.5776C20.4744 17.5894 20.1652 17.1535 20.1652 17.1535L20.6411 17.0445C20.6707 16.7655 20.8859 16.6172 20.8859 16.6172C21.0282 16.6984 21.1821 17.0647 21.1821 17.0647L21.5898 17.1157C21.5898 17.1157 21.4028 17.5657 20.9386 17.5776Z" clip-rule="evenodd"/><path id="Combined Shape_2" fill="#FFBB00" fill-rule="evenodd" d="M20.9534 15.6987C20.9534 15.6987 20.4258 16.772 19.5948 16.855C18.7639 16.9381 18.3418 16.2446 18.3418 16.2446C18.3418 16.2446 18.2874 16.9657 17.3005 17.2437C16.3136 17.5217 15.7939 16.4111 15.7939 16.4111C15.7939 16.4111 16.3077 16.8196 17.1046 16.6416C17.9015 16.4636 18.216 15.8062 18.216 15.8062C18.216 15.8062 18.8058 16.4915 19.5948 16.1489C20.3839 15.8062 20.8204 15.3874 20.8204 14.9855V13.7836C20.8204 13.7836 20.6169 13.472 20.2637 13.472C19.9106 13.472 19.812 13.6929 19.812 13.6929C19.812 13.6929 19.6742 12.4426 20.9443 12.3653L20.9443 12.3623C20.9561 12.3626 20.9678 12.363 20.9794 12.3635C20.991 12.363 21.0027 12.3626 21.0145 12.3623L21.0144 12.3653C22.2846 12.4426 22.1467 13.6929 22.1467 13.6929C22.1467 13.6929 22.0482 13.472 21.695 13.472C21.3419 13.472 21.1383 13.7836 21.1383 13.7836V14.9855C21.1383 15.3874 21.5748 15.8062 22.3639 16.1489C23.153 16.4915 23.7427 15.8062 23.7427 15.8062C23.7427 15.8062 24.0573 16.4636 24.8541 16.6416C25.651 16.8196 26.1648 16.4111 26.1648 16.4111C26.1648 16.4111 25.6451 17.5217 24.6582 17.2437C23.6714 16.9657 23.6169 16.2446 23.6169 16.2446C23.6169 16.2446 23.1949 16.9381 22.3639 16.855C21.5329 16.772 21.0053 15.6987 21.0053 15.6987L20.9794 14.2814L20.9534 15.6987ZM20.9417 12.702C20.3558 12.702 20.2371 13.1429 20.2371 13.1429C20.7531 13.1429 20.9417 13.3428 20.9417 13.3428C20.9417 13.3428 21.3237 13.1429 21.7083 13.1429C21.7083 13.1429 21.5277 12.702 20.9417 12.702Z" clip-rule="evenodd"/></g></g></g></g></g></g><defs><filter id="filter0_dd_91_24756" width="42" height="30" x="0" y="0" color-interpolation-filters="sRGB" filterUnits="userSpaceOnUse"><feFlood flood-opacity="0" result="BackgroundImageFix"/><feColorMatrix in="SourceAlpha" result="hardAlpha" values="0 0 0 0 0 0 0 0 0 0 0 0 0 0 0 0 0 0 127 0"/><feOffset dy="1"/><feGaussianBlur stdDeviation="1"/><feColorMatrix values="0 0 0 0 0.0627451 0 0 0 0 0.0941176 0 0 0 0 0.156863 0 0 0 0.06 0"/><feBlend in2="BackgroundImageFix" result="effect1_dropShadow_91_24756"/><feColorMatrix in="SourceAlpha" result="hardAlpha" values="0 0 0 0 0 0 0 0 0 0 0 0 0 0 0 0 0 0 127 0"/><feOffset dy="1"/><feGaussianBlur stdDeviation="1.5"/><feColorMatrix values="0 0 0 0 0.0627451 0 0 0 0 0.0941176 0 0 0 0 0.156863 0 0 0 0.1 0"/><feBlend in2="effect1_dropShadow_91_24756" result="effect2_dropShadow_91_24756"/><feBlend in="SourceGraphic" in2="effect2_dropShadow_91_24756" result="shape"/></filter><clipPath id="clip0_91_24756"><rect width="36" height="24" x="3" y="2" fill="white" rx="2"/></clipPath></defs></svg>

<svg xmlns="http://www.w3.org/2000/svg" fill="none" aria-hidden="true" viewBox="0 0 42 30"><g filter="url(#a)"><g clip-path="url(#b)"><mask id="c" width="36" height="24" x="3" y="2" maskUnits="userSpaceOnUse" style="mask-type:alpha"><path fill="#fff" d="M3 2h36v24H3z"/></mask><g fill-rule="evenodd" clip-rule="evenodd" mask="url(#c)"><path fill="#F7FCFF" d="M3 2h36v24H3V2Z"/><path fill="#C51918" d="M3 2v8h36V2H3Z"/><path fill="#409100" d="M3 18v8h36v-8H3Z"/><g fill="#FB0"><path d="m21.023 10.63-.665.418.234-.7-.645-.442.81-.015.266-.69.266.69.81.015-.646.442.235.7-.665-.418Zm-2.81.613-.665.418.235-.7-.646-.442.81-.015.266-.691.266.69.81.016-.645.441.234.7-.665-.417Zm-2.85 2.256.666-.418.665.418-.235-.7.646-.442-.81-.015-.267-.69-.266.69-.81.015.646.442-.235.7Zm-.037 1.965-.665.418.235-.7-.646-.442.81-.015.266-.69.266.69.81.015-.645.442.234.7-.665-.418Zm10.65.418.665-.418.665.418-.234-.7.645-.442-.81-.015-.266-.69-.266.69-.81.015.646.442-.235.7Zm-.193-2.801-.665.418.234-.7-.645-.442.81-.015.266-.69.266.69.81.015-.646.442.235.7-.665-.418Zm-2.818-1.42.666-.418.665.418-.235-.7.646-.442-.81-.015-.266-.691-.266.69-.81.016.645.441-.235.7Zm-5.714 7.094-.208-.657c1.148-.276 2.465-.413 3.953-.413s2.805.137 3.953.413l-.208.657c-1.075-.259-2.324-.389-3.745-.389-1.421 0-2.67.13-3.745.389Zm1.42-1.053c-.457.07-.831-.324-.831-.324l.454-.167a.607.607 0 0 1 .175-.453c.154.063.364.406.364.406h.412s-.115.469-.573.538Zm5.412-.256s-.375.393-.833.324c-.457-.069-.572-.538-.572-.538h.412s.21-.343.363-.406c0 0 .19.173.175.453l.455.167Zm-3.144.132c-.465.011-.774-.424-.774-.424l.476-.11a.635.635 0 0 1 .245-.427c.142.081.296.448.296.448l.408.05s-.187.45-.651.463Z"/><path d="M20.953 15.699s-.527 1.073-1.358 1.156c-.831.083-1.253-.61-1.253-.61s-.055.72-1.041.999c-.987.278-1.507-.833-1.507-.833s.514.409 1.31.23c.797-.177 1.112-.835 1.112-.835s.59.685 1.379.343c.789-.343 1.225-.762 1.225-1.164v-1.201s-.203-.312-.556-.312c-.353 0-.452.22-.452.22s-.138-1.25 1.132-1.327v-.003l.035.002.036-.002v.003c1.27.078 1.132 1.328 1.132 1.328s-.099-.221-.452-.221-.557.312-.557.312v1.201c0 .402.437.821 1.226 1.164.789.342 1.379-.343 1.379-.343s.314.658 1.111.836c.797.178 1.31-.23 1.31-.23s-.519 1.11-1.506.832c-.987-.278-1.041-1-1.041-1s-.422.694-1.253.611c-.831-.083-1.359-1.156-1.359-1.156l-.026-1.418-.026 1.418Zm-.011-2.997c-.586 0-.705.44-.705.44.516 0 .705.2.705.2s.382-.2.766-.2c0 0-.18-.44-.766-.44Z"/></g></g></g></g><defs><clipPath id="b"><rect width="36" height="24" x="3" y="2" fill="#fff" rx="2"/></clipPath><filter id="a" width="42" height="30" x="0" y="0" color-interpolation-filters="sRGB" filterUnits="userSpaceOnUse"><feFlood flood-opacity="0" result="BackgroundImageFix"/><feColorMatrix in="SourceAlpha" result="hardAlpha" values="0 0 0 0 0 0 0 0 0 0 0 0 0 0 0 0 0 0 127 0"/><feOffset dy="1"/><feGaussianBlur stdDeviation="1"/><feColorMatrix values="0 0 0 0 0.0627451 0 0 0 0 0.0941176 0 0 0 0 0.156863 0 0 0 0.06 0"/><feBlend in2="BackgroundImageFix" result="effect1_dropShadow_91_24756"/><feColorMatrix in="SourceAlpha" result="hardAlpha" values="0 0 0 0 0 0 0 0 0 0 0 0 0 0 0 0 0 0 127 0"/><feOffset dy="1"/><feGaussianBlur stdDeviation="1.5"/><feColorMatrix values="0 0 0 0 0.0627451 0 0 0 0 0.0941176 0 0 0 0 0.156863 0 0 0 0.1 0"/><feBlend in2="effect1_dropShadow_91_24756" result="effect2_dropShadow_91_24756"/><feBlend in="SourceGraphic" in2="effect2_dropShadow_91_24756" result="shape"/></filter></defs></svg>
